packages/kaspersky-hexa-ui-icons/src/iconsSVGs/16x12/FlagAo.svg

<svg width="16" height="12" viewBox="0 0 16 12" fill="none" xmlns="http://www.w3.org/2000/svg">
<g clip-path="url(#clip0_41812_2601)">
<mask id="mask0_41812_2601" style="mask-type:luminance" maskUnits="userSpaceOnUse" x="0" y="0" width="16" height="12">
<rect width="16" height="12" rx="2" fill="white"/>
</mask>
<g mask="url(#mask0_41812_2601)">
<rect width="16" height="12" fill="url(#paint0_linear_41812_2601)"/>
<path fill-rule="evenodd" clip-rule="evenodd" d="M0 12H16V6.40002H0V12Z" fill="#262626"/>
<path fill-rule="evenodd" clip-rule="evenodd" d="M0 6.4H16V0H0V6.4Z" fill="#DD2137"/>
<path d="M7.86206 3.42279C9.08138 3.76584 9.80493 5.08196 9.47827 6.36224C9.42631 6.56587 9.34766 6.75467 9.25269 6.92963L9.73511 7.26752C9.91002 7.3901 9.95724 7.63845 9.84058 7.8222C9.72381 8.00578 9.48722 8.05503 9.31226 7.93256L8.76929 7.55267C8.21521 8.05719 7.4402 8.27382 6.67847 8.05951C6.47547 8.00217 6.35549 7.78253 6.40991 7.56927C6.46447 7.35617 6.67269 7.23007 6.87573 7.28705C7.30926 7.40902 7.74813 7.31935 8.09741 7.08197L7.0271 6.33295C6.85213 6.21047 6.80417 5.96204 6.92065 5.77826C7.03728 5.59458 7.27395 5.54473 7.44897 5.66693L8.61792 6.48529C8.66941 6.38224 8.71206 6.27233 8.74194 6.15521C8.95976 5.30167 8.4777 4.42396 7.66479 4.19525C7.46176 4.13801 7.34097 3.91924 7.39526 3.70599C7.44971 3.49263 7.65886 3.36566 7.86206 3.42279ZM7.23804 4.40033C7.44834 4.40033 7.61875 4.57896 7.6189 4.79974C7.6189 5.02066 7.44843 5.20013 7.23804 5.20013C7.02764 5.20013 6.85718 5.02066 6.85718 4.79974C6.85732 4.57896 7.02773 4.40033 7.23804 4.40033Z" fill="#F8D84B"/>
</g>
</g>
<defs>
<linearGradient id="paint0_linear_41812_2601" x1="0" y1="0" x2="0" y2="12" gradientUnits="userSpaceOnUse">
<stop stop-color="#FF323E"/>
<stop offset="1" stop-color="#FD0D1B"/>
</linearGradient>
<clipPath id="clip0_41812_2601">
<rect width="16" height="12" fill="white"/>
</clipPath>
</defs>
</svg>

<svg xmlns="http://www.w3.org/2000/svg" width="16" height="12" fill="none" viewBox="0 0 16 12"><g clip-path="url(#a)"><mask id="b" width="16" height="12" x="0" y="0" maskUnits="userSpaceOnUse" style="mask-type:luminance"><rect width="16" height="12" fill="#fff" rx="2"/></mask><g mask="url(#b)"><path fill="url(#c)" d="M0 0h16v12H0z"/><path fill="#262626" fill-rule="evenodd" d="M0 12h16V6.4H0z" clip-rule="evenodd"/><path fill="#dd2137" fill-rule="evenodd" d="M0 6.4h16V0H0z" clip-rule="evenodd"/><path fill="#f8d84b" d="M7.862 3.4228c1.2194.343 1.943 1.6592 1.6163 2.9394-.052.2037-.1306.3925-.2256.5674l.4824.338c.175.1225.2221.3708.1055.5546-.1168.1836-.3534.2328-.5283.1104l-.543-.38c-.554.5046-1.3291.7212-2.0908.507-.203-.0574-.323-.277-.2686-.4903.0546-.2131.2628-.3392.4658-.2823.4336.122.8724.0324 1.2217-.205l-1.0703-.749c-.175-.1225-.223-.371-.1064-.5547s.3533-.2336.5283-.1114l1.169.8184c.0514-.103.094-.213.124-.33.2178-.8536-.2643-1.7313-1.0772-1.96-.203-.0573-.3238-.276-.2695-.4893.0544-.2134.2636-.3403.4668-.2832m-.624.9775c.2103 0 .3807.1787.3809.3994 0 .221-.1705.4004-.3809.4004s-.3808-.1794-.3808-.4004c.0001-.2207.1705-.3994.3808-.3994"/></g></g><defs><linearGradient id="c" x1="0" x2="0" y1="0" y2="12" gradientUnits="userSpaceOnUse"><stop stop-color="#ff323e"/><stop offset="1" stop-color="#fd0d1b"/></linearGradient><clipPath id="a"><path fill="#fff" d="M0 0h16v12H0z"/></clipPath></defs></svg>
